packages/icons/src/initialize-ci-step-inverse.svg

<svg fill="none" viewBox="0 0 40 41" xmlns="http://www.w3.org/2000/svg"><path clip-rule="evenodd" d="m10.0719 30.0295c5.4739 5.4628 14.3492 5.4628 19.8231 0 .4957-.4946.9462-1.0168 1.3518-1.5616.1649-.2215.4782-.2673.6997-.1024s.2673.4781.1024.6996c-.4346.5838-.9172 1.143-1.4475 1.6723-5.8642 5.8523-15.3716 5.8523-21.23586 0-.07997-.0798-.17265-.1773-.27116-.284l.00022 4.0363c.00001.2761-.22383.5-.49998.5-.27614 0-.50001-.2238-.50002-.4999l-.00031-5.8653 5.87681-.0003c.2761-.0001.5.2238.5.4999 0 .2762-.2238.5-.5.5001l-4.27956.0002c.1413.1564.27517.3001.38036.4051zm22.9521-3.4966c-.2518-.1133-.3641-.4092-.2509-.6611.2722-.605.4991-1.2255.6808-1.8563.0764-.2653.3534-.4185.6188-.3421s.4185.3535.3421.6188c-.1946.6761-.4379 1.3412-.7297 1.9899-.1133.2518-.4093.3641-.6611.2508zm-26.29411-.5523c-.25621.103-.54742-.0212-.65044-.2774-.28649-.7125-.51594-1.4424-.68836-2.1828-.06264-.2689.10461-.5377.37356-.6003.26895-.0627.53774.1046.60038.3735.1609.6909.37498 1.3719.64222 2.0365.10302.2562-.02116.5474-.27736.6505zm27.66461-4.0222c-.275-.025-.4776-.2683-.4525-.5433.0601-.6589.0735-1.3212.0402-1.9816-.0138-.2758.1985-.5107.4743-.5245.2758-.0139.5106.1984.5245.4742.0356.7074.0212 1.4169-.0432 2.1227-.025.275-.2683.4776-.5433.4525zm-28.85098-.6141c-.27579.0139-.51062-.1985-.5245-.4743-.0356-.7074-.02122-1.4169.04315-2.1227.02508-.275.26834-.4776.54334-.4525s.4776.2683.45252.5433c-.06009.6589-.07351 1.3212-.04027 1.9817.01388.2758-.19844.5106-.47424.5245zm28.69178-4.0111c-.2689.0626-.5377-.1046-.6003-.3736-.1609-.6909-.375-1.3719-.6422-2.0365-.1031-.2562.0211-.5474.2773-.6504.2562-.1031.5474.0211.6505.2773.2864.7125.5159 1.4424.6883 2.1828.0626.2689-.1046.5377-.3736.6004zm-28.30799-.7534c-.26536-.0764-.41854-.3534-.34213-.6188.19465-.676.43789-1.3411.72971-1.9898.11328-.2519.40927-.3642.66111-.2509.25183.1133.36415.4093.25086.6611-.27219.6051-.4991 1.2255-.68073 1.8563-.0764.2654-.35346.4185-.61882.3421zm2.1262-4.692c-.22149-.1649-.26735-.4782-.10244-.6997.43467-.5838.91722-1.143 1.44753-1.67224 5.8642-5.85232 15.3716-5.85232 21.2359 0 .0799.07981.1726.1773.2711.28396l-.0002-4.03629c0-.27614.2238-.50001.5-.50003.2761-.00001.5.22384.5.49998l.0003 5.86532-5.8768.0003c-.2761 0-.5-.2239-.5-.5s.2238-.5.5-.5l4.2796-.0002c-.1413-.1565-.2752-.3002-.3804-.4052-5.4739-5.46277-14.3492-5.46277-19.8231 0-.49566.4946-.94623 1.0169-1.35184 1.5616-.16491.2215-.47815.2674-.69965.1025z" fill="#fff" fill-rule="evenodd"/></svg>

<svg viewBox="0 0 40 41" fill="none" xmlns="http://www.w3.org/2000/svg">
<path fill-rule="evenodd" clip-rule="evenodd" d="M10.0719 30.0295C15.5458 35.4923 24.4211 35.4923 29.895 30.0295C30.3907 29.5349 30.8412 29.0127 31.2468 28.4679C31.4117 28.2464 31.725 28.2006 31.9465 28.3655C32.168 28.5304 32.2138 28.8436 32.0489 29.0651C31.6143 29.6489 31.1317 30.2081 30.6014 30.7374C24.7372 36.5897 15.2298 36.5897 9.36554 30.7374C9.28557 30.6576 9.19289 30.5601 9.09438 30.4534L9.0946 34.4897C9.09461 34.7658 8.87077 34.9897 8.59462 34.9897C8.31848 34.9897 8.09461 34.7659 8.0946 34.4898L8.09429 28.6245L13.9711 28.6242C14.2472 28.6241 14.4711 28.848 14.4711 29.1241C14.4711 29.4003 14.2473 29.6241 13.9711 29.6242L9.69154 29.6244C9.83284 29.7808 9.96671 29.9245 10.0719 30.0295ZM33.024 26.5329C32.7722 26.4196 32.6599 26.1237 32.7731 25.8718C33.0453 25.2668 33.2722 24.6463 33.4539 24.0155C33.5303 23.7502 33.8073 23.597 34.0727 23.6734C34.3381 23.7498 34.4912 24.0269 34.4148 24.2922C34.2202 24.9683 33.9769 25.6334 33.6851 26.2821C33.5718 26.5339 33.2758 26.6462 33.024 26.5329ZM6.72989 25.9806C6.47368 26.0836 6.18247 25.9594 6.07945 25.7032C5.79296 24.9907 5.56351 24.2608 5.39109 23.5204C5.32845 23.2515 5.4957 22.9827 5.76465 22.9201C6.0336 22.8574 6.30239 23.0247 6.36503 23.2936C6.52593 23.9845 6.74001 24.6655 7.00725 25.3301C7.11027 25.5863 6.98609 25.8775 6.72989 25.9806ZM34.3945 21.9584C34.1195 21.9334 33.9169 21.6901 33.942 21.4151C34.0021 20.7562 34.0155 20.0939 33.9822 19.4335C33.9684 19.1577 34.1807 18.9228 34.4565 18.909C34.7323 18.8951 34.9671 19.1074 34.981 19.3832C35.0166 20.0906 35.0022 20.8001 34.9378 21.5059C34.9128 21.7809 34.6695 21.9835 34.3945 21.9584ZM5.54352 21.3443C5.26773 21.3582 5.0329 21.1458 5.01902 20.87C4.98342 20.1626 4.9978 19.4531 5.06217 18.7473C5.08725 18.4723 5.33051 18.2697 5.60551 18.2948C5.88051 18.3199 6.08311 18.5631 6.05803 18.8381C5.99794 19.497 5.98452 20.1593 6.01776 20.8198C6.03164 21.0956 5.81932 21.3304 5.54352 21.3443ZM34.2353 17.3332C33.9664 17.3958 33.6976 17.2286 33.635 16.9596C33.4741 16.2687 33.26 15.5877 32.9928 14.9231C32.8897 14.6669 33.0139 14.3757 33.2701 14.2727C33.5263 14.1696 33.8175 14.2938 33.9206 14.55C34.207 15.2625 34.4365 15.9924 34.6089 16.7328C34.6715 17.0017 34.5043 17.2705 34.2353 17.3332ZM5.92731 16.5798C5.66195 16.5034 5.50877 16.2264 5.58518 15.961C5.77983 15.285 6.02307 14.6199 6.31489 13.9712C6.42817 13.7193 6.72416 13.607 6.976 13.7203C7.22783 13.8336 7.34015 14.1296 7.22686 14.3814C6.95467 14.9865 6.72776 15.6069 6.54613 16.2377C6.46973 16.5031 6.19267 16.6562 5.92731 16.5798ZM8.05351 11.8878C7.83202 11.7229 7.78616 11.4096 7.95107 11.1881C8.38574 10.6043 8.86829 10.0451 9.3986 9.51586C15.2628 3.66354 24.7702 3.66354 30.6345 9.51586C30.7144 9.59567 30.8071 9.69316 30.9056 9.79982L30.9054 5.76353C30.9054 5.48739 31.1292 5.26352 31.4054 5.2635C31.6815 5.26349 31.9054 5.48734 31.9054 5.76348L31.9057 11.6288L26.0289 11.6291C25.7528 11.6291 25.5289 11.4052 25.5289 11.1291C25.5289 10.853 25.7527 10.6291 26.0289 10.6291L30.3085 10.6289C30.1672 10.4724 30.0333 10.3287 29.9281 10.2237C24.4542 4.76093 15.5789 4.76093 10.105 10.2237C9.60934 10.7183 9.15877 11.2406 8.75316 11.7853C8.58825 12.0068 8.27501 12.0527 8.05351 11.8878Z" fill="white"/>
</svg>
